X:1
T:Judas mercator pessimus - Zoili
T:#
%%score [ 1 2 3 4 ]
L:1/8
Q:1/4=200
M:none
K:F
V:1 treble nm="Soprano" snm="S"
V:2 treble nm="Alto" snm="A"
V:3 treble-8 nm="Tenor" snm="T"
V:4 bass nm="Bass" snm="B"
V:1
"^Judas mercator pessimus""^Annibale Zoilo\n(c.1537-92)" B16 | A8 d8 | c8 A4 (B4- | %3
w: Ju-|das mer-|ca- tor pes\-|
 B2 A2 G2 F2 G4) G4 | A8 z8 | A12 A4 | A4 G8 G4 | G4 (F2 G2 A4) G4 |[M:4/2] ^F8 z8 || %9
w: * * * * * si-|mus|o- scu-|lo pe- ti-|it Do\- * * mi-|num:|
[M:3/2] D4 D4 D4 | D8 D4 | E8 E4 | E4 F8 F4 | G4 A4 B8 | A4 (G2 F2 G2 A2 B2 G2 | A4 G8) ^F4 | %16
w: il- le ut|a- gnus|in- no-|cens non ne-|ga- vit Ju-|dae o\- * * * * *|* * scu-|
[M:4/2] !fermata!G8 z8 || E8 E4 E4 | (F4 E2 D2 E4) E4 | E6 E2 F8 | B8 A4 G4 | ^F4 G4 A8 | %22
w: lum.|De- na- ri-|o\- * * * rum|nu- me- ro|Chri- stum Ju-|dae- is tra-|
 G8 F4 c4 | B4 A4 c4 G4 | (A4 B6 A2 G4- | G4) ^F4 G16 || z16 | z16 | z16 | z16 | z16 | z16 | z16 | %33
w: di- dit. Chri-|stum Ju dae- is|tra\- * * *|* di- dit.||||||||
 z16 | z16 | z16 ||"^Tutti" E8 E4 E4 | (F4 E2 D2 E4) E4 | E6 E2 F8 | B8 A4 G4 | ^F4 G4 A8 | %41
w: |||De- na- ri-|o\- * * * rum|nu- me- ro|Chri- stum Ju-|dae- is tra-|
 G8 F4 c4 | B4[Q:1/4=198] A4[Q:1/4=194] c4[Q:1/4=191] G4 | %43
w: di- dit. Chri-|stum Ju dae- is|
[Q:1/4=187] (A4[Q:1/4=183] B6[Q:1/4=180] A2[Q:1/4=177] G4- | %44
w: tra\- * * *|
[Q:1/4=174] G4)[Q:1/4=171] ^F4[Q:1/4=170] G16 |] %45
w: * di- dit.|
V:2
 G16 | F12 F4 | F12 F4 | (_E4 D2 C2 D4) =E4 | F8 z8 | F12 F4 | F4 E8 E4 | E4 (D6 CB,) C4 | %8
w: Ju-|das mer-|ca- tor|pes\- * * * si-|mus|o- scu-|lo pe- ti-|it Do\- * * mi-|
[M:4/2] D8 z8 ||[M:3/2] A,4 A,4 A,4 | A,8 A,4 | C8 C4 | C4 C8 D4 | D4 F4 F8 | F4 (D6 E2 F4- | %15
w: num:|il- le ut|a- gnus|in- no-|cens non ne-|ga- vit Ju-|dae o\- * *|
 F2 E2 D2 C2 D4) D4 |[M:4/2] !fermata!D8 z8 || C8 C4 C4 | (A,4 B,4) C4 C4- | C4 C4 C4 F4 | %20
w: * * * * * scu-|lum.|De- na- ri-|o\- * rum nu\-|* me- ro Chri-|
 E4 D4 F4 C4 | (D4 E6 D2 D4- | D4) ^C4 D4 =C4 | (D2 E2 F8 E4) | D8 D8- | D4 D4 D16 || z16 | z16 | %28
w: stum Ju- dae- is|tra\- * * *|* di- dit, Ju-|dae\- * * *|is tra\-|* di- dit.|||
 z16 | z16 | z16 | z16 | z16 | z16 | z16 | z16 || C8 C4 C4 | (A,4 B,4) C4 C4- | C4 C4 C4 F4 | %39
w: ||||||||De- na- ri-|o\- * rum nu\-|* me- ro Chri-|
 E4 D4 F4 C4 | (D4 E6 D2 D4- | D4) ^C4 D4 =C4 | (D2 E2 F8 E4) | D8 D8- | D4 D4 D16 |] %45
w: stum Ju- dae- is|tra\- * * *|* di- dit, Ju-|dae\- * * *|is tra\-|* di- dit.|
V:3
 d16 | (d6 cB A4) B4 | (A2 G2 A2 B2 c4) d4 | B12 B4 | c8 z8 | c12 c4 | c4 c8 c4 | c4 (A6 F2) G4 | %8
w: Ju-|das * * * mer-|ca\- * * * * tor|pes- si-|mus|o- scu-|lo pe- ti-|it Do\- * mi-|
[M:4/2][K:treble-8] A8 z8 ||[M:3/2] ^F4 F4 F4 | ^F8 F4 | G8 G4 | G4 A8 A4 | B4 c4 d8 | %14
w: num:|il- le ut|a- gnus|in- no-|cens non ne-|ga- vit Ju-|
 c4 (B2 A2 B2 c2 d4 | c4 B4 A4) A4 |[M:4/2][K:treble-8] !fermata!G8 z8 || G8 G4 G4 | F8 G4 G4- | %19
w: dae o\- * * * *|* * * scu-|lum.|De- na- ri-|o- rum nu\-|
 G4 G4 A8 | z16 | z16 | z16 | d8 c4 B4 | A4 G4 B8 | A8 G16 ||"^Duo" d12 d4 | d8 B8 | %28
w: * me- ro||||Chri- stum Ju-|dae- is tra-|di- dit.|Me- li-|us il-|
 A4 (f6 e2 d2 c2 | d2 c2 B2 A2 B8) | A16 | z4 A4 A8 | G4 G8 F4 | (G4 A4 B4 A4- | A2 G2 G8 ^F4) | %35
w: li e\- * * *||rat,|si na-|tus non fu-|is\- * * *||
 !fermata!G16 || G8 G4 G4 | F8 G4 G4- | G4 G4 A8 | z16 | z16 | z16 | d8 c4 B4 | A4 G4 B8 | %44
w: set.|De- na- ri-|o- rum nu\-|* me- ro||||Chri- stum Ju-|dae- is tra-|
 A8 G16 |] %45
w: di- dit.|
V:4
 G,16 | D,12 B,,4 | F,12 D,4 | G,12 G,4 | F,8 z8 | F,12 F,4 | F,4 C,8 C,4 | C,4 D,8 _E,4 | %8
w: Ju-|das mer-|ca- tor|pes- si-|mus|o- scu-|lo pe- ti-|it Do- mi-|
[M:4/2] D,8 z8 ||[M:3/2] D,4 D,4 D,4 | D,8 D,4 | C,8 C,4 | C,4 F,8 D,4 | G,4 F,4 B,8 | %14
w: num:|il- le ut|a- gnus|in- no-|cens non ne-|ga- vit Ju-|
 F,4 (G,6 F,2 D,2 E,2 | F,4 G,4) D,8 |[M:4/2] !fermata!G,,8 z8 || C,8 C,4 C,4 | D,8 C,4 C,4- | %19
w: dae o\- * * *|* * scu-|lum.|De- na- ri-|o- rum nu\-|
 C,4 C,4 F,8 | G,8 F,4 E,4 | D,4 C,4 F,8 | E,8 D,4 A,4 | G,4 F,4 A,4 G,4 | (F,4 G,6 ^F,2 G,4) | %25
w: * me- ro|Chri- stum Ju-|dae- is tra-|di- dit. Chri-|stum Ju- dae- is|tra\- * * *|
 D,8 G,,16 || z8 G,8- | G,4 G,4 G,8 | F,8 D,4 (B,4- | B,2 A,2 A,8 G,4) | A,8 z4 D,4 | %31
w: di- dit.|Me-|* li- us|il- li e\-||rat, si|
 D,8 C,4 C,4- | C,4 B,,4 (C,4 D,4 | _E,4 D,8 C,2 B,,2 | C,2 B,,2 A,,2 G,,2 A,,8) | %35
w: na- tus non|* fu- is\- *|||
 !fermata!G,,16 || C,8 C,4 C,4 | D,8 C,4 C,4- | C,4 C,4 F,8 | G,8 F,4 E,4 | D,4 C,4 F,8 | %41
w: set.|De- na- ri-|o- rum nu\-|* me- ro|Chri- stum Ju-|dae- is tra-|
 E,8 D,4 A,4 | G,4 F,4 A,4 G,4 | (F,4 G,6 ^F,2 G,4) | D,8 G,,16 |] %45
w: di- dit. Chri-|stum Ju- dae- is|tra\- * * *|di- dit.|

